X:1
T:O bone Jesu
T:Giovanni Maria Scorzutto
T:Source : Ghirlanda Sacra---Venetia---Ang.Gardano (B.Magni)---1625. Editor : André Vierendeels (18/12/16).
T:Notes : Original clefs : C1, F4 Editorial accidentals above the staff Figures in BC are notated in original print Music collected by Leonardo Simonetti
T:O bone Jesu
T:©
T:©
T:©
T:©
T:©
C:Giovanni Maria Scorzutto
Z:©
%%score 1 2
L:1/8
Q:1/4=101
M:4/4
K:F
V:1 treble nm="Soprano" snm="S"
V:2 bass nm="MusicXML Part"
V:1
 G8- | G4 ^F2 F2 | G8 | ^F4 z4 | z4 G2 A2 | =B3 B c4 | d2 c2 BAcB | A4 G4 | z2 AA A2 AG | %9
w: O|_ bo- ne|JE-|SU,|O pi-|is- si- me|JE- * * * * *|* SU,|O dul- cis- si- me|
 =B2 B2 z ccc | c2 cc B3 B | A3 A A4 | z ddd d2 dd | c3 c B3 B | B4 z4 | z4 d2 dd | d3 A =B3 B | %17
w: JE- SU, O JE- SU|fi- li Ma- ri- ae|Vir- gi- nis,|O JE- SU fi- li Ma-|ri- ae Vir- gi-|nis,|ple- ne mi-|se- ri- cor- di-|
 =B4 c2 cd | ^F2 G4 F2 | G8 | z8 | z8 | z8 | z8 | z8 | z8 | z8 | z2 G4 FF | E4 E4 | z2 c4 BB | %30
w: a et pi- e|ta- * *|te,||||||||O dul- cis|JE- SU,|O dul- cis|
 A4 A4 | z2 d/c/B/A/ B3 B | c4 d4 | A6 GA | B6 AB | ^c2 d4 c2 | d2 d4 cc | =B4 B4 | z2 _e4 dd | %39
w: JE- SU|se- * * * cun- dum|ma- gnam|mi- se- ri-|cor- di- am|tu- * *|am, O dul- cis|JE- SU,|O dul- cis|
 ^c4 c4 | z2 d/c/B/A/ B3 B | c4 d4 | A6 GA | B6 AB | c8- | c4 =B4 | A2 A2 A4- | A4 B4 | A8 | G8 | %50
w: JE- SU,|se- * * * cun- dum|ma- gnam|mi- se- ri-|cor- di- am|tu-|* am,|mi- se- re-|* re|me-|i,|
 z2 G4 FF | E4 E4 | ^F2 F2 F4- | F4 G4 | ^F8 | E8 | A2 A2 A4- | A4 B4 | A8 | G8 |] %60
w: O dul- cis|JE- SU,|mi- se- re-|* re|me-|i,|mi- se- re-|* re|me-|i.|
V:2
"^BC" G,8 |"^4 3" D,8 |"^7 6" _E,8 | D,4 D,2 E,2 | ^F,3 F, G,2 D,2 | G,4 z4 | B,,2 A,,2 G,,2 A,,2 | %7
 D,4 G,,4 |"^#""^#" D,4 D,4 |"^-natural" G,,4 C,4 | F,,4 B,,4 | F,,4 F,,4 | B,,4 B,,4 | F,,4 B,,4 | %14
 B,,4 G,,G, F,E, | D,2 E,2 ^F,4 | ^F,4 G,4 | G,4 C,3 =B,, | D,8 | G,,8 | G,2 D,2 F,2 C,D, | %21
 _E,2 B,,C, D,2 A,,B,, | C,2 G,,A,, B,,2 F,,G,, | A,,2 B,,2 C,4 | D,4 G,,A,,B,,C, | D,E,F,D, G,4- | %26
 G,2 ^F,E, F,4 | G,4 C,2 D,2 | A,,4 A,,4 |"^-natural" F,,4 C,2 G,,2 | D,4 D,4 | ^F,4 G,4 | %32
 F,4 B,,4 | D,2 C,D, _E,4- | E,2 D,=E, F,3 G, | A,8 | D,2 B,,4 A,,2 | G,,4 G,,4 | C,6 B,,2 | %39
 A,,4 A,,4 | ^F,,4 G,,4 | F,,4 B,,2 D,2- | D,2 C,D, _E,4- | E,2 D,=E, F,4 | E,4 F,4 | G,8 | D,8- | %47
"^7" D,4 C,4 | D,8 | G,,8 | G,,4 C,2 D,2 | A,,4 A,,4 |"^5" D,4 =B,,4- |"^7" B,,4 A,,4 | =B,,8 | %55
 E,8 | D,8- |"^5" D,4 C,4 | D,8 | G,,8 |] %60

